public/Security-Monitoring-icon.svg

<svg width="102" height="125" viewBox="0 0 102 125" fill="none" xmlns="http://www.w3.org/2000/svg">
<g clip-path="url(#clip0_9_91247)">
<path fill-rule="evenodd" clip-rule="evenodd" d="M66.1825 72.4651V80.8502L95.3934 70.7931V62.4017L66.1825 72.4651ZM65.4887 82.6794C65.337 82.678 65.1907 82.6223 65.0762 82.5222C64.9801 82.4512 64.9027 82.3577 64.8507 82.2498C64.7987 82.1419 64.7737 82.0229 64.7778 81.9031V71.8978C64.7734 71.7373 64.8189 71.5795 64.908 71.4462C64.9971 71.313 65.1252 71.211 65.2747 71.1545L95.8903 60.6039C95.9929 60.5692 96.1027 60.5612 96.2093 60.5807C96.3158 60.6002 96.4157 60.6466 96.4997 60.7155C96.5917 60.7923 96.6661 60.8882 96.7176 60.9968C96.7692 61.1053 96.7966 61.2238 96.7981 61.3441V71.3541C96.8024 71.5146 96.7569 71.6724 96.6679 71.8057C96.5788 71.9389 96.4506 72.0409 96.3012 72.0974L65.6856 82.6479C65.6227 82.6717 65.5559 82.6814 65.4887 82.6794Z" fill="#4069FA"/>
<path fill-rule="evenodd" clip-rule="evenodd" d="M91.268 88.293V98.3045L78.8633 106.176V96.1721L91.268 88.293Z" fill="#F0F3FA"/>
<path fill-rule="evenodd" clip-rule="evenodd" d="M79.5548 96.6159V104.844L90.572 97.8605V89.6325L79.5548 96.6159ZM78.8611 106.956C78.7343 106.952 78.6107 106.916 78.5017 106.851C78.3919 106.777 78.3022 106.677 78.2405 106.56C78.1789 106.443 78.1472 106.312 78.1485 106.18V96.168C78.1464 96.0362 78.1777 95.906 78.2395 95.7897C78.3013 95.6734 78.3915 95.5748 78.5017 95.5033L90.922 87.6179C91.0264 87.5536 91.1464 87.5195 91.2689 87.5195C91.3913 87.5195 91.5113 87.5536 91.6157 87.6179C91.7273 87.6899 91.8189 87.7892 91.8817 87.9066C91.9446 88.024 91.9767 88.1556 91.9751 88.2889V98.3005C91.9767 98.4338 91.9446 98.5653 91.8817 98.6827C91.8189 98.8001 91.7273 98.8995 91.6157 98.9715L79.2173 106.849C79.1088 106.914 78.9857 106.95 78.8595 106.954" fill="#4069FA"/>
<path fill-rule="evenodd" clip-rule="evenodd" d="M78.8649 96.1682V106.18L53.0742 89.7756V79.7656L78.8649 96.1682Z" fill="#1B69FF"/>
<path fill-rule="evenodd" clip-rule="evenodd" d="M53.7653 89.3405L78.1481 104.847V96.621L53.7653 81.1125V89.3405ZM78.8606 106.959C78.7344 106.955 78.6114 106.919 78.5028 106.854L52.7122 90.4531C52.6033 90.3797 52.5149 90.2795 52.4553 90.1621C52.3957 90.0446 52.3669 89.9139 52.3716 89.7821V79.7705C52.3669 79.6388 52.3957 79.508 52.4553 79.3906C52.5149 79.2732 52.6033 79.173 52.7122 79.0995C52.8186 79.032 52.9418 78.9961 53.0677 78.9961C53.1935 78.9961 53.3168 79.032 53.4231 79.0995L79.2185 95.5084C79.3261 95.5812 79.4134 95.6805 79.4719 95.7969C79.5304 95.9133 79.5583 96.0428 79.5528 96.1731V106.185C79.5572 106.316 79.5289 106.446 79.4705 106.563C79.4121 106.68 79.3254 106.781 79.2185 106.856C79.1095 106.921 78.9858 106.957 78.8591 106.961" fill="#4069FA"/>
<path fill-rule="evenodd" clip-rule="evenodd" d="M53.068 79.7695V89.7795L36.4492 109.224V99.2081L53.068 79.7695Z" fill="#F0F3FA"/>
<path fill-rule="evenodd" clip-rule="evenodd" d="M37.1391 99.5124V107.272L52.372 89.4757V81.7112L37.1391 99.5124ZM36.4454 109.997C36.3544 109.995 36.2647 109.975 36.1813 109.939C36.0441 109.877 35.9279 109.776 35.8471 109.648C35.7663 109.521 35.7244 109.372 35.7266 109.221V99.2107C35.729 99.015 35.7985 98.8263 35.9235 98.6764L52.5516 79.2409C52.6424 79.1266 52.7684 79.0457 52.9097 79.011C53.0511 78.9764 53.1999 78.9898 53.3329 79.0492C53.4676 79.1123 53.5809 79.2139 53.6584 79.3413C53.736 79.4688 53.7744 79.6165 53.7688 79.7658V89.7774C53.7732 89.9707 53.7096 90.1594 53.5891 90.3101L36.961 109.747C36.8973 109.822 36.8187 109.883 36.7301 109.926C36.6416 109.969 36.5452 109.993 36.447 109.997" fill="#4069FA"/>
<path fill-rule="evenodd" clip-rule="evenodd" d="M36.4484 99.2106V109.222L6.40625 52.2092V42.1992L36.4484 99.2106Z" fill="#1B69FF"/>
<path fill-rule="evenodd" clip-rule="evenodd" d="M7.09382 52.0081L35.7235 106.348V99.4134L7.09382 45.0781V52.0081ZM36.4407 109.994C36.3113 109.992 36.1848 109.955 36.0748 109.887C35.9647 109.818 35.8751 109.721 35.8157 109.606L5.78913 52.6005C5.72557 52.4809 5.69079 52.348 5.68757 52.2124V42.2008C5.68537 42.0376 5.7345 41.8778 5.82794 41.7443C5.92138 41.6109 6.05435 41.5105 6.20788 41.4575C6.3599 41.4119 6.52315 41.4226 6.66795 41.4878C6.81275 41.553 6.92949 41.6682 6.99695 41.8127L37.0391 98.8241C37.1119 98.9405 37.1473 99.0765 37.1407 99.2138V109.224C37.1426 109.388 37.0934 109.548 37.0001 109.683C36.9068 109.817 36.774 109.919 36.6204 109.973C36.5637 109.989 36.5056 109.998 36.4469 110" fill="#4069FA"/>
<path fill-rule="evenodd" clip-rule="evenodd" d="M6.40625 42.1992L96.0938 61.3392L65.4719 71.8976L91.2672 88.2924L78.8625 96.1715L53.0688 79.7689L36.4484 99.2122L6.40625 42.1992Z" fill="white"/>
<path fill-rule="evenodd" clip-rule="evenodd" d="M7.77342 43.2863L36.5828 97.9217L52.5515 79.2422C52.6546 79.1152 52.8002 79.0304 52.9611 79.0037C53.1219 78.9771 53.2869 79.0105 53.425 79.0976L78.8609 95.2833L89.8531 88.2936L65.1297 72.562C65.0111 72.4788 64.9161 72.3659 64.8541 72.2344C64.7922 72.1029 64.7655 71.9575 64.7765 71.8125C64.7867 71.666 64.8391 71.5257 64.9273 71.4087C65.0156 71.2917 65.1359 71.2032 65.2734 71.154L93.2281 61.518L7.77342 43.2863ZM36.45 99.9819H36.3656C36.2531 99.9629 36.1462 99.9187 36.0529 99.8526C35.9596 99.7865 35.8823 99.7002 35.8265 99.6L5.78748 42.5886C5.72106 42.458 5.68959 42.3122 5.69617 42.1656C5.70274 42.019 5.74713 41.8767 5.82498 41.7526C5.89382 41.6342 5.99762 41.5403 6.12194 41.484C6.24627 41.4277 6.38496 41.4117 6.51873 41.4383L96.225 60.5783C96.3859 60.6174 96.5295 60.7088 96.6335 60.8384C96.7375 60.9679 96.796 61.1284 96.8 61.2949C96.8092 61.4605 96.7661 61.6247 96.6769 61.7642C96.5876 61.9036 96.4568 62.0111 96.3031 62.0712L67.2172 72.1079L91.6187 87.621C91.729 87.6946 91.8194 87.7944 91.8819 87.9116C91.9445 88.0288 91.9772 88.1598 91.9772 88.2928C91.9772 88.4258 91.9445 88.5568 91.8819 88.674C91.8194 88.7912 91.729 88.8911 91.6187 88.9646L79.2203 96.8422C79.1129 96.9101 78.9886 96.9462 78.8617 96.9462C78.7348 96.9462 78.6105 96.9101 78.5031 96.8422L53.2094 80.7429L36.9594 99.7383C36.8944 99.8116 36.8154 99.871 36.727 99.9129C36.6387 99.9547 36.5429 99.9782 36.4453 99.9819" fill="#4069FA"/>
</g>
<defs>
<clipPath id="clip0_9_91247">
<rect width="100" height="110" fill="white" transform="translate(1)"/>
</clipPath>
</defs>
</svg>

<svg xmlns="http://www.w3.org/2000/svg" width="102" height="125" fill="none" viewBox="0 0 102 125"><g fill-rule="evenodd" clip-path="url(#a)" clip-rule="evenodd"><path fill="#4069fa" d="M66.183 72.465v8.385l29.21-10.057v-8.391zm-.694 10.214a.64.64 0 0 1-.413-.157.74.74 0 0 1-.298-.619V71.898a.77.77 0 0 1 .497-.743L95.89 60.604a.64.64 0 0 1 .61.111.83.83 0 0 1 .298.63v10.01a.78.78 0 0 1-.497.742l-30.615 10.55a.5.5 0 0 1-.197.032"/><path fill="#f0f3fa" d="M91.268 88.293v10.011l-12.405 7.872V96.172z"/><path fill="#4069fa" d="M79.555 96.616v8.228l11.017-6.983v-8.229zm-.694 10.34a.75.75 0 0 1-.36-.105.8.8 0 0 1-.353-.671V96.168a.78.78 0 0 1 .354-.665l12.42-7.885a.66.66 0 0 1 .694 0 .78.78 0 0 1 .36.67v10.013a.79.79 0 0 1-.36.67l-12.399 7.878a.74.74 0 0 1-.358.105"/><path fill="#1b69ff" d="M78.865 96.168v10.012l-25.79-16.404v-10.01z"/><path fill="#4069fa" d="m53.765 89.34 24.383 15.507v-8.226L53.765 81.113zm25.096 17.619a.74.74 0 0 1-.358-.105l-25.79-16.4a.77.77 0 0 1-.341-.672V79.771a.78.78 0 0 1 .34-.671.66.66 0 0 1 .711 0L79.22 95.508a.76.76 0 0 1 .334.665v10.012a.79.79 0 0 1-.334.671.75.75 0 0 1-.36.105"/><path fill="#f0f3fa" d="M53.068 79.77v10.01l-16.619 19.444V99.208z"/><path fill="#4069fa" d="M37.14 99.512v7.76l15.232-17.796V81.71zm-.695 10.485a.7.7 0 0 1-.264-.058.77.77 0 0 1-.454-.718v-10.01a.85.85 0 0 1 .197-.535l16.628-19.435a.66.66 0 0 1 .78-.192.76.76 0 0 1 .437.717v10.011a.82.82 0 0 1-.18.533l-16.628 19.437a.7.7 0 0 1-.514.25"/><path fill="#1b69ff" d="M36.448 99.21v10.012L6.406 52.209V42.2z"/><path fill="#4069fa" d="m7.094 52.008 28.63 54.34v-6.935L7.094 45.078zm29.347 57.986a.72.72 0 0 1-.625-.388L5.789 52.601a.9.9 0 0 1-.101-.389V42.201a.78.78 0 0 1 .52-.743.66.66 0 0 1 .789.355l30.042 57.011a.67.67 0 0 1 .102.39v10.01a.778.778 0 0 1-.52.749.7.7 0 0 1-.174.027"/><path fill="#fff" d="m6.406 42.2 89.688 19.14-30.622 10.558 25.795 16.394-12.404 7.88-25.794-16.403-16.62 19.443z"/><path fill="#4069fa" d="m7.773 43.286 28.81 54.636 15.968-18.68a.67.67 0 0 1 .874-.144l25.436 16.185 10.992-6.99L65.13 72.563a.84.84 0 0 1-.353-.75.76.76 0 0 1 .496-.658l27.955-9.636zM36.45 99.982h-.084a.76.76 0 0 1-.54-.382L5.788 42.589a.85.85 0 0 1 .038-.836.66.66 0 0 1 .694-.315l89.706 19.14a.75.75 0 0 1 .575.717.79.79 0 0 1-.497.776L67.217 72.108 91.62 87.62a.8.8 0 0 1 .358.672.81.81 0 0 1-.358.672L79.22 96.842a.67.67 0 0 1-.717 0l-25.294-16.1-16.25 18.996a.73.73 0 0 1-.514.244"/></g><defs><clipPath id="a"><path fill="#fff" d="M1 0h100v110H1z"/></clipPath></defs></svg>
